!!!!SEGMENT: pl-kc--40102-iii-1-saf--002-038_zielenski-mikolaj--communiones-totius-anni-motteto-in-festo-paschae-haec-dies-quam-fecit-dominus.krn
!!!cenid: 16xx:1569
!!!COM: Zieleński, Mikołaj
!!!COM-rismID: pe30013481
!!!CDT: <1611->1611
!!!CNT: Polish
!!!GTL: Communiones totius anni
!!!OTL: Motteto in festo Paschae/Haec dies quam fecit Dominus
!!!OMV: 038
!!!PDT: 1611
!!!AGN: Sacred
!!!YEC: Copyright 2022 Narodowy Instytut Fryderyka Chopina (https://polishscores.org)
!!!YEM: License CC-BY-4.0 (https://creativecommons.org/licenses/by/4.0)
!!!SMS-siglum: PL-Kc
!!!SMS-shelfmark: 40102 III/1 Saf.
!!!SMS-shelfwork: 002-038 G
!!!SMS-variant:
!!!SMS-altvar:
!!!NIFC-rismSourceID: 990069887
!!!NIFC-rismChildID: 990069887
!!!NIFC-islandoraID: none
!!!URL-pdf-islandora:
!!!URL-scan: https://cyfrowe.mnk.pl/dlibra/publication/24235/edition/23926/content?ref=desc @EN{Scan on The National Museum in Krakow Website} @PL{Skany w portalu Biblioteka Cyfrowa Muzeum Narodowego w Krakowie}
!!!IIIF:
!!!ONB-nifc: UWAGA: str. 63-64. Numer w źródle: 44 (nr 45 nad ostatnią pięciolinią str. 63 wygląda jedynie na adnotację a nie kolejny utwór). Uwaga: W xml metrum 2/1 do źródłowego C| i odpowiednio 3/1 do 3/2
!!!AIN: 5 organ
!!!key:
**kern	**kern	**kern	**kern	**kern
*part5	*part4	*part3	*part2	*part1
*staff5	*staff4	*staff3	*staff2	*staff1
*I"	*I"	*I"	*I"	*I"Organo
*I'	*I'	*I'	*I'	*I'org
*Iorgan	*Iorgan	*Iorgan	*Iorgan	*Iorgan
*ICklav	*ICklav	*ICklav	*ICklav	*I'org
*clefF4	*clefC4	*clefC3	*clefC1	*clefG2
*k[b-]	*k[b-]	*k[b-]	*k[b-]	*k[b-]
*g:	*g:	*g:	*g:	*g:
*M2/1	*M2/1	*M2/1	*M2/1	*M2/1
*met(C|)	*met(C|)	*met(C|)	*met(C|)	*met(C|)
=1	=1	=1	=1	=1
!	!	!	!	!LO:TX:a:t=44. Motteto in feſto Paſchae à 5. Soli debent cantare cum Organo ſine Inſtrumentis.
!LO:TX:t=Alio modo, Simplice, Cantores cum Organo,& Inſtrumentis. 45.	!	!	!	!LO:TX:b:t=Haec dies quam fecit Dominus.
00r	00r	1g	1b-	1dd
.	.	1c	1cc	1ee-X
=2-	=2-	=2-	=2-	=2-
.	.	2g\	2b-\	2dd\
.	.	2e-X\	2.g/	2gg\
.	.	2e-\	.	2gg\
.	.	.	4g/	.
.	.	2d\	4b-\	2ff\
.	.	.	[<4b-\	.
=3	=3	=3	=3	=3
00r	00r	2.c/	4b-\]	2ee-X\
.	.	.	8a\	.
.	.	.	8g\	.
.	.	.	2a\	2ee-\
.	.	4c/	.	.
.	.	2B-/	2.b-\	2.dd\
.	.	2B-/	.	.
.	.	.	4dd\	4ff\
=4-	=4-	=4-	=4-	=4-
.	.	4B-/	2.dd\	2.ff\
.	.	4c/	.	.
.	.	4d\	.	.
!	!	!LO:SIC:v:s=4e-\	!	!
.	.	4e\	8cc\	8ee-y\
.	.	.	8b-\	8dd\
.	.	4f\	4a\	4cc\
!	!	!LO:SIC:v:s=8e-\	!	!
.	.	8e\	4b-\	4dd\
.	.	8d\	.	.
.	.	4c/	4cc\	4ee-X\
.	.	4d\	8b-\	8dd\
.	.	.	8a\	8cc\
=5	=5	=5	=5	=5
!	!	!LO:SIC:v:s=4e-\	!	!
00r	00r	4e\	4g/	4b-/
.	.	8d\	4a\	4cc\
.	.	8c\	.	.
.	.	4B-/	4b-\	4dd\
.	.	4c/	8a\	8cc\
.	.	.	8g\	8b-\
.	.	4d\	4f/	4a/
.	.	8c/	4g/	4b-/
.	.	8B-/	.	.
.	.	4A/	4a\	4cc\
.	.	4B-/	8g/	8b-/
.	.	.	8f/	8a/
=6-	=6-	=6-	=6-	=6-
!	!	!	!LO:SIC:v:s=2e-/	!
.	.	2c/	2e/	2g/
.	.	2G/	2g/	2b-/
.	.	4d\	2f/	2a/
.	.	4c/	.	.
.	.	4B-/	[y2b-\	[y2dd\
.	.	4A/	.	.
=7	=7	=7	=7	=7
!	!	!	!LO:N:xstem:cue	!LO:N:xstem:cue
0r	0r	2B-/	4b-\]	4dd\]
.	.	.	8a\	8cc\
.	.	.	8b-\	8dd\
.	.	2c/	4a\	4cc\
.	.	.	4g/	4b-/
.	.	2d\	2f#Xi/	2a/
.	.	2G/	2.g/	2b-/
=8-	=8-	=8-	=8-	=8-
1r	1r	1.d	.	2.a/
.	.	.	8f#X/	.
.	.	.	8e/	.
.	.	.	2f#/	.
.	.	.	.	4a/
!	!LO:N:acc=#	!	!	!
1G	1Bn	.	1g	1g
.	.	2d\	.	.
=9	=9	=9	=9	=9
1c	1c	1e-X	00r	00r
2G\	2B-\	2d\	.	.
2E-X\	2.G/	2g\	.	.
=10-	=10-	=10-	=10-	=10-
2E-y\	.	2g\	.	.
.	4G/	.	.	.
2D/	4B-\	2f\	.	.
.	2B-\	.	.	.
2.C/	.	2e-X\	.	.
.	8A/	.	.	.
.	8G/	.	.	.
.	2A/	2e-\	.	.
4C/	.	.	.	.
=11	=11	=11	=11	=11
2BB-/	2B-\	2d\	2r	2r
2GG/	2B-\	2d\	2g/	2dd\
1GG	4G/	1d	1g	1b-
.	4A/	.	.	.
.	4B-\	.	.	.
.	4G/	.	.	.
=12-	=12-	=12-	=12-	=12-
2D/	2.A/	1d	2f#X/	2a/
2D/	.	.	1a	2ff\
.	2d\	.	.	.
1A	.	1r	.	1ee
.	8c#X\	.	.	.
!	!LO:SIC:v:s=8Bn\	!	!	!
.	8B-\	.	.	.
.	2c#\	.	2e/	.
=13	=13	=13	=13	=13
2.D/	2.d\	2r	2f#X/	2.dd\
.	.	4r	4r	.
!	!	!	!LO:SIC:v:s=4fny/	!
4BB-/	4D/	4d\	4f#y/	4dd\
!	!	!	!LO:SIC:v:s=[1fny	!
2BB-/	2F/	2B-/	[1f#y	2dd\
2FF/	1A\	2c/	.	1cc\
=14-	=14-	=14-	=14-	=14-
!	!	!	!LO:SIC:v:s=2fny/]	!
2.C/	.	1.c	2f#y/]	.
.	2.G/	.	2e/	2g/
4BB-/	.	.	.	.
2AA/	.	.	2a\	2a/
.	8F#X/	.	.	.
.	8E/	.	.	.
2AA/	2F#/	2A/	2a\	2cc\
=15	=15	=15	=15	=15
2GG/	2G/	1d	1d	2.b-/
2G\	1B-	.	.	.
.	.	.	.	4a/
2.E-X\	.	1.G	2r	2g/
.	2B-\	.	2.g/	2gg\
4D/	.	.	.	.
=16-	=16-	=16-	=16-	=16-
2C/	1.c	.	.	2ee-X\
.	.	.	8a\	.
.	.	.	8b-\	.
2C/	.	2g\	2cc\	2ee-\
[y1D	.	2f#X\	2a\	[y1dd
.	2B-\	[y2g\	2g/	.
=17	=17	=17	=17	=17
!LO:N:vis=4:xstem:cue	!	!LO:N:xstem:cue	!	!LO:N:vis=4:xstem:cue
2D\]	2.A/	4g\]	2.a\	2dd\]
.	.	8f#X\	.	.
.	.	8e\	.	.
2D/	.	2f#\	.	2dd\
.	4A/	.	4a\	.
!	!	!	!LO:N:acc=#	!
1GG	1G	1g	1bn	1dd
=18-	=18-	=18-	=18-	=18-
*M3/2	*M3/2	*M3/2	*M3/2	*M3/2
0.r	0.r	1c	1cc	1ee
.	.	2d\	2a\	2ff\
!	!	!LO:SIC:v:s=1Bn	!	!
.	.	1B-	1bny	1dd
.	.	2fny\	2a\	2cc\
=19	=19	=19	=19	=19
0.r	0.r	1c	1cc	1ee-X
.	.	2c/	2cc\	2ee-\
!	!	!	!LO:N:acc=#	!
.	.	1g	1bn	1dd
.	.	2c/	2cc\	2cc\
=20	=20	=20	=20	=20
0.r	0.r	1f	1a	1cc
.	.	2B-/	2b-\	2dd\
.	.	1e-X	1g	1b-
.	.	2c/	2a\	2cc\
=21	=21	=21	=21	=21
!LO:N:vis=00	!LO:N:vis=00	!	!	!
00.r	00.r	1B-	1a	1dd
.	.	2c/	2g/	2cc\
.	.	1d	1f#X	1a
.	.	2G/	2g/	2b-/
=22-	=22-	=22-	=22-	=22-
.	.	2G/	1g	2b-/
.	.	1d	.	1a
.	.	.	2f#X/	.
!	!	!	!	!LO:N:acc=#
.	.	1.G	1.g	1.bn
*custos:BB	*custos:B	*	*custos:dd	*custos:ff
!!pagebreak:original
=23	=23	=23	=23	=23
!	!	!	!LO:N:vis=00	!LO:N:vis=00
1BB-	1B-	1d	00.r	00.r
2C/	2G/	2c/	.	.
1AA	2G/	1c	.	.
.	2F#X/	.	.	.
!	!	!LO:N:acc=#	!	!
2GG/	2G/	2Bn/	.	.
=24-	=24-	=24-	=24-	=24-
!	!LO:N:acc=#	!	!	!
1G	1Bn	1d	.	.
2D/	1d	2f\	.	.
1A	.	1e	.	.
.	2c#X\	.	.	.
2D/	2d\	2d\	.	.
=25	=25	=25	=25	=25
1BB-	1d	2.f\	1dd	1ff
.	.	4d\	.	.
!	!	!	!	!LO:SIC:v:s=2ee-\
2C/	2G/	2g\	1cc	2ee\
1GG	1G	1g	.	1dd
!	!	!	!LO:N:acc=#	!
.	.	.	2bn\	.
!	!	!	!	!LO:SIC:v:s=2ee-\
2C/	2G/	2g\	2cc\	2ee\
=26-	=26-	=26-	=26-	=26-
1F	1A	1f	1a	1cc
2D/	2A/	2f\	2a\	2dd\
1GG	2B-\	1d	1g	1b-
.	4A/	.	.	.
.	4G/	.	.	.
[2D/	[2A/	[<2d\	[2f#X/	[2a/
=27	=27	=27	=27	=27
2D/]	2A/]	2d\]	2f#/]	2a/]
2BB-/	2B-\	2f\	2b-\	2dd\
2F\	2c\	2f\	2a\	2cc\
1D	1d	1a	1dd	1ff
2G\	2d\	2g\	2b-\	2dd\
=2-8	=28-	=28-	=28-	=28-
1E-X	1G	1g	1b-	1gg
2C/	2G/	2g\	2cc\	2ee-X\
1F	1A	1f	1a	1cc
2F\	2A/	2f\	2a\	2cc\
=29	=29	=29	=29	=29
1D	1F	1f	1a	1ff
2BB-/	2F/	2f\	2b-\	2dd\
1E-X	1A	1e-X	1g	1b-
2E-\	2G/	2e-\	2g/	2b-/
=30-	=30-	=30-	=30-	=30-
2C/	2G/	2e-y\	2g/	2cc\
1D	1d	1d	1f#X	1a
!	!LO:N:acc=#	!	!	!LO:N:acc=#
1GG	1Bn	1d	1g	1bn
2GG/	2G/	2g\	2b-\	2dd\
=31	=31	=31	=31	=31
2.G\	2.B-\	2.g\	2.b-\	2.dd\
4G\	4B-\	4g\	4b-\	4dd\
2E-X\	2B-\	2g\	2g/	2gg\
2C/	2c\	2g\	1cc	2ee-X\
1G	1d	1g	.	1dd
!	!	!	!LO:N:acc=#	!
.	.	.	2bn\	.
=32-	=32-	=32-	=32-	=32-
*M2/1	*M2/1	*M2/1	*M2/1	*M2/1
*met(C|)	*met(C|)	*met(C|)	*met(C|)	*met(C|)
2.C/	2.c\	2.g\	2.cc\	2.eeny\
4C/	4c\	4g\	4cc\	4ee\
2D/	2F/	2f\	2a\	2ff\
2BB-/	2B-\	2f\	2b-y\	2dd\
=33	=33	=33	=33	=33
1F	1c	2.f\	2.a\	2.cc\
.	.	4f\	4a\	4ff\
!	!	!	!LO:N:acc=#	!
1r	1r	2g\	2bn\	2dd\
.	.	2e\	2cc#X\	2gg\
=34-	=34-	=34-	=34-	=34-
2r	2r	2.d\	2.dd\	2.ff#X\
4r	4r	.	.	.
4G\	4d\	4d\	4bny\	4gg\
!	!LO:SIC:v:s=2c#\	!	!	!
2A\	2c\	2a\	2cc#y\	2ee\
!	!	!	!	!LO:SIC:v:s=2ffny\
2F\	2d\	2A/	2a\	2ff#y\
=35	=35	=35	=35	=35
!	!LO:N:acc=#	!	!	!
2.G\	2.Bn\	2.d\	2.g/	2.dd\
4E\	4c\	4c/	4g/	4ee\
2F\	2A/	2c/	2a\	2cc\
!	!LO:SIC:v:s=2B-y\	!	!	!
2D/	2Bny\	2B-/	2f/	2dd\
=36-	=36-	=36-	=36-	=36-
2.E-X\	2.G/	2.B-/	2.g/	2.b-/
4C/	4A/	4A/	4e/	4cc\
2D/	2F/	2A/	2f/	2a/
2BB-/	2G/	2G/	2d/	2b-/
=37	=37	=37	=37	=37
2.C/	2.E/	2.G/	2.e/	2.g/
4AA/	4F/	4F/	4c/	4a/
2BB-/	2D/	2F/	2.d/	2f/
2GG/	2D/	2B-/	.	2g/
.	.	.	4e/	.
=38-	=38-	=38-	=38-	=38-
2.D/	2D/	1A	2.f/	4a/
.	.	.	.	4d/
.	1F	.	.	2.dd\
4C/	.	.	4e/	.
2BB-/	.	2B-/	2d/	.
.	.	.	.	4cc\
2GG/	2G/	2d\	2g/	2b-/
!	!	!	!	!LO:TX:t=x
=39	=39	=39	=39	=39
0D	2A/	0d	2f#X/	2a/
.	2G/	.	2.g/	2b-/
.	1A	.	.	1a
.	.	.	8f#X/	.
.	.	.	8e/	.
.	.	.	2f#/	.
=40-	=40-	=40-	=40-	=40-
!	!	!	!	!LO:N:acc=#
2GG/	2G/	2d\	2g/	2bn/
1C	1G	1e-X	1g	1cc
!LO:N:acc=#	!	!	!	!
2BBn/	2G/	2d\	2g/	2dd\
=41	=41	=41	=41	=41
00C	00G	2.c/	1g	2.ee-X\
.	.	4d\	.	4dd\
.	.	1e-X	2g/	4cc\
.	.	.	.	4g/
!	!	!	!LO:SIC:v:s=2.ee-\	!
.	.	.	2.ee\	2.gg\
=42-	=42-	=42-	=42-	=42-
.	.	0c	.	.
.	.	.	4dd\	4ff\
.	.	.	4cc\	4ee-X\
!	!	!	!LO:SIC:v:s=4bn\	!
.	.	.	4b-\	4dd\
.	.	.	4cc\	1ee-X
.	.	.	4g/	.
.	.	.	1cc\	.
=43-	=43-	=43-	=43-	=43-
0GGl	0Gl	0dl	.	0ddl
!	!	!	!LO:N:acc=#	!
.	.	.	4bn\	.
.	.	.	4a\	.
!	!	!	!LO:N:acc=#	!
.	.	.	1bnl	.
==	==	==	==	==
*-	*-	*-	*-	*-
!!!system-decoration: [(s1,s2,s3,s4,s5)]
!!!RDF**kern: l = terminal long
!!!RDF**kern: i = editorial accidental
!!!RDF**kern: > = above
!!!RDF**kern: < = below
!!!ENC: Katarzyna Serwa
!!!END: 2021-12-25
!!!ENC: Anastazja Marusiak
!!!END: 2021-12-21
